public/illustrations/_home.svg

<svg width="245" height="354" viewBox="0 0 245 354" fill="none" xmlns="http://www.w3.org/2000/svg">
<path d="M108.919 279.088C115.079 285.773 120.31 292.009 125.894 297.875C139.485 312.188 153.379 326.411 166.993 340.585C168.356 341.83 169.555 343.19 170.615 344.526C171.354 345.23 171.905 346.189 172.012 347.214C172.26 348.264 172.089 349.24 171.778 350.192C171.656 350.889 171.115 351.513 170.599 351.997C170.083 352.482 169.427 352.942 168.681 353.099C167.935 353.255 167.189 353.412 166.491 353.29C165.794 353.168 164.957 353.021 164.448 352.644C163.545 352.055 162.782 351.49 162.067 350.646C147.829 335.931 133.565 321.357 119.49 306.527C112.083 298.76 105.144 290.788 97.9005 282.906C97.1616 282.201 96.4225 281.497 95.708 280.653C95.2235 280.137 94.7146 279.76 94.0418 279.498C93.3689 279.237 92.6472 279.254 91.9499 279.132C82.2883 279.307 72.7661 279.506 63.1044 279.681L19.7335 280.272C15.5425 280.4 11.491 280.552 7.46384 280.565C2.43605 280.546 0.104119 278.268 0.0985411 273.38C0.0657282 266.187 0.032813 258.994 0 251.801C0.168832 234.438 0.31325 217.213 0.342621 199.826C0.406447 183.881 0.306296 168.052 0.370122 152.107C0.488419 140.772 0.582268 129.576 0.561105 118.217C0.541089 115.051 0.545555 111.745 0.664998 108.604C0.72833 106.603 1.34954 104.699 2.24963 102.845C3.12527 101.129 4.41927 99.4875 6.05833 98.3374C19.4226 86.8805 32.6718 75.2598 45.8965 63.7785C57.4333 53.7263 69.0851 43.838 80.5975 33.9252C91.9459 24.1275 103.13 14.4448 114.339 4.62255C115.183 3.90803 115.864 3.30852 116.708 2.594C121.042 -0.814712 125.234 -0.942509 129.486 2.67787C138.731 10.6231 147.951 18.7079 157.031 26.7681L209.485 72.7618C218.336 80.4943 227.137 88.5057 236.152 96.1231C237.539 97.2288 238.599 98.5645 239.494 100.015C240.366 101.605 240.794 103.262 240.944 104.869C241.409 110.413 241.596 115.908 241.783 121.403C241.962 127.759 241.838 134.206 242.018 140.562C242.213 153.39 242.547 166.242 242.742 179.069C242.927 190.314 243.112 201.558 243.273 212.942C243.513 228.796 243.728 244.79 244.107 260.668C244.092 262.39 244.242 263.998 244.227 265.72C244.473 272.519 241.467 275.73 234.692 275.836C220.7 276.114 206.708 276.393 192.715 276.671C188.828 276.708 185.055 276.909 180.725 277.013C181.694 278.045 182.433 278.75 183.172 279.454L231.067 319.474C233.818 321.825 236.568 324.175 239.179 326.502C239.942 327.067 240.517 327.886 240.789 328.796C241.061 329.707 241.193 330.592 241.161 331.593C241.039 332.29 240.892 333.127 240.491 333.775C240.09 334.424 239.574 334.908 238.918 335.368C238.263 335.828 237.516 335.985 236.795 336.002C236.073 336.019 235.236 335.873 234.563 335.611C233.242 334.948 232.085 334.17 231.091 333.277C210.542 316.02 189.993 298.762 169.444 281.504C169.19 281.315 168.796 281.103 168.566 280.775C167.203 279.53 165.651 278.539 163.887 277.942C162.123 277.346 160.286 277.167 158.4 277.268C145.359 277.857 132.277 277.863 119.146 278.149C116.095 278.333 113.093 278.238 109.042 278.39L108.919 279.088ZM87.1654 269.524C87.4488 266.268 87.5192 263.405 87.7537 260.428C88.7849 251.265 90.9563 242.159 94.055 233.502C96.8602 226.519 100.568 220.126 106.591 215.288C113.786 209.506 122.322 207.552 131.377 207.558C138.406 207.64 145.11 210.397 149.979 215.419C153.65 219.081 156.501 223.318 158.532 228.13C163.038 237.689 164.091 248.079 165.309 258.355C165.771 261.454 165.931 264.645 166.369 267.884C176.449 267.782 186.25 267.632 196.076 267.342C196.822 267.185 197.568 267.028 198.363 266.593C196.705 214.554 194.767 162.466 192.993 110.263C144.504 110.532 96.4329 110.873 48.3864 111.076C47.6647 111.093 47.0581 111.274 46.4269 111.595C47.3811 164.373 48.3597 217.011 49.4044 270.092C62.0681 270.012 74.4529 269.883 87.0504 269.361L87.1654 269.524ZM18.8326 101.727L221.147 100.536C221.845 100.659 222.73 100.526 223.476 100.37C223.78 100.279 224.108 100.049 224.411 99.9586C220.511 95.9687 125.38 12.1639 122.524 11.2321C88.4545 40.7648 54.2453 70.2731 19.8477 100.036C19.471 100.545 19.0699 101.193 18.6932 101.702L18.8326 101.727ZM10.364 112.317C10.2934 115.179 10.2229 118.042 10.2673 121.068C10.1546 137.292 10.0663 153.375 9.83858 169.435C9.7764 179.63 9.82916 189.989 9.76697 200.184L9.69383 236.682C9.60719 247.017 9.66009 257.376 9.68848 267.874C9.77182 269.038 9.87955 270.064 10.1268 271.113L40.1369 270.48C39.9029 259.515 39.8989 248.877 39.5916 238.33C39.4238 227.807 39.256 217.284 39.0637 206.901C38.8959 196.378 38.6374 185.552 38.4695 175.029C38.3261 164.367 38.1338 153.983 37.802 143.575C37.4947 133.028 37.6304 122.415 37.0442 111.819C25.2001 111.324 13.6521 111.599 10.479 112.481L10.364 112.317ZM234.304 266.568L234.597 264.895C234.299 247.737 234 230.579 233.841 213.445C233.467 194.261 233.256 174.963 232.882 155.779C232.645 142.369 232.433 128.82 232.196 115.41C232.186 113.827 232.643 112.039 231.559 110.843C231.141 110.769 231.05 110.466 231.026 110.605C222.11 110.624 213.334 110.666 204.558 110.709C204 110.611 203.484 111.096 202.853 111.417C203.382 128.902 203.959 146.109 204.512 163.455C205.065 180.802 205.503 197.984 206.335 215.379C207.191 232.635 207.186 249.884 208.272 267.467C217.278 267.752 225.709 267.218 234.534 266.896L234.304 266.568ZM156.544 268.174C156.551 267.313 156.509 266.731 156.443 266.288C155.929 261.023 155.438 255.618 154.645 250.304C153.719 244.105 152.654 237.881 149.769 232.2C147.64 227.946 145.207 223.782 141.251 220.932C136.67 217.542 131.437 217.056 125.868 217.661C122.35 218.05 118.989 219.186 115.948 220.953C112.907 222.72 110.187 225.118 108.115 227.917C104.159 233.261 102.198 239.529 100.376 245.822C98.5543 252.115 98.1759 258.374 97.0758 264.649C96.9464 266.208 97.096 267.815 97.2454 269.423C117.151 269.031 136.753 268.73 156.404 268.15L156.544 268.174Z" fill="#102185"/>
<path d="M162.792 166.924C160.174 179.402 153.55 189.309 141.885 195.17C130.221 201.031 118.467 200.84 107.28 194.135C93.7297 186.154 87.4084 173.833 87.5628 158.192C87.4739 152.139 88.7796 146.331 91.3159 140.882C93.8523 135.433 97.6855 130.787 102.373 127.008C109.288 121.177 117.971 118.387 126.928 118.951C133.49 119.239 139.898 121.224 145.315 124.761C153.581 130.091 159.586 138.475 161.951 147.945C163.598 154.128 163.778 160.484 162.677 166.76L162.792 166.924ZM153.152 164.515C154.033 159.494 153.657 154.254 152.208 149.4C150.62 144.522 147.957 140.03 144.287 136.368C139.993 132.165 134.568 129.49 128.686 128.602C122.78 127.854 116.786 129.247 111.778 132.394C95.8693 141.968 92.753 163.846 103.76 178.137C106.43 181.768 109.943 184.683 114.046 186.696C118.15 188.709 122.612 189.492 127.107 189.273C139.704 188.75 151.388 177.861 153.152 164.515Z" fill="#102185"/>
<path d="M119.729 41.9345C119.116 42.9768 118.362 43.9947 117.494 44.8487C114.184 48.1496 110.784 51.1472 107.498 54.3086C100.764 60.7466 94.1438 67.3484 87.3848 73.9258C86.0246 75.1248 84.6645 76.3238 83.1893 77.3589C82.2059 78.049 80.9925 78.4113 79.7129 78.3307C78.4578 78.1107 77.3909 77.6362 76.5614 76.6283C75.8713 75.6449 75.509 74.4314 75.7046 73.3158C75.9002 72.2001 76.3748 71.1333 77.3826 70.3038C80.5041 67.2573 83.88 64.3992 86.977 61.4923C95.2601 53.6008 103.404 45.6849 111.547 37.7691C112.088 37.1451 112.768 36.5456 113.539 36.2495C114.309 35.9533 115.056 35.7966 115.917 35.8039C119.034 36.0628 120.414 38.0296 119.705 42.074L119.729 41.9345Z" fill="#102185"/>
<path d="M131.605 55.3719C131.179 56.1598 130.614 56.9232 130.049 57.6867C124.486 63.18 119.063 68.6979 113.361 74.1668C112.304 75.2753 111.132 76.2198 109.96 77.1644C107.526 78.7501 105.131 78.474 103.702 76.786C102.848 75.9176 102.486 74.7041 102.542 73.564C102.737 72.4483 103.097 71.2176 103.941 70.5031C110.069 64.2463 116.336 58.014 122.603 51.7816C123.636 50.8126 124.783 50.0075 126.136 49.6697C129.473 48.6735 132.174 51.3032 131.441 55.487L131.605 55.3719Z" fill="#102185"/>
<path d="M134.75 80.0723C131.124 79.4367 129.611 76.5842 130.798 73.9172C130.895 73.3594 131.248 72.9899 131.6 72.6204C134.91 69.3195 138.244 65.8791 141.808 62.7666C142.16 62.3971 142.652 62.052 143.259 61.8709C143.726 61.6653 144.308 61.6236 144.866 61.7214C145.424 61.8192 145.982 61.917 146.516 62.1543C147.049 62.3915 147.418 62.7438 147.763 63.2355C148.133 63.5878 148.478 64.0795 148.683 64.5467C148.889 65.014 149.07 65.6207 148.972 66.1786L148.679 67.8521C148.581 68.4099 148.09 68.755 147.737 69.1244C144.542 72.5893 141.093 75.8658 137.644 79.1422C136.825 79.7173 135.775 79.9645 134.75 80.0723Z" fill="#102185"/>
<path d="M136.212 247.216C136.334 246.519 136.432 245.961 136.809 245.452C137.186 244.943 137.562 244.434 138.194 244.114C138.685 243.769 139.316 243.448 139.899 243.406C140.505 243.225 141.203 243.348 141.76 243.445C143.016 243.665 144.149 244.583 144.839 245.566C145.529 246.55 145.867 247.902 145.786 249.182C145.566 250.437 144.788 251.594 143.665 252.26C142.542 252.926 141.329 253.288 140.074 253.068C138.843 252.709 137.825 251.955 137.16 250.832C136.494 249.709 136.132 248.496 136.352 247.241L136.212 247.216Z" fill="#102185"/>
<path d="M123.293 174.948C120.225 174.411 117.492 172.781 115.627 170.298C114.289 168.914 113.278 167.299 112.267 165.685C111.717 164.726 111.47 163.676 111.665 162.56C111.861 161.445 112.311 160.517 113.179 159.663C114.023 158.949 114.933 158.677 115.958 158.569C116.983 158.462 118.05 158.936 118.838 159.362C119.856 160.115 120.849 161.008 121.539 161.991C122.278 162.696 122.854 163.515 123.593 164.22C125.234 165.514 126.235 165.546 128.038 164.281C129.349 163.36 130.267 162.227 131.578 161.307C134.995 159.032 139.123 160.905 139.16 164.793C139.153 165.654 138.843 166.606 138.581 167.279C136.428 171.357 129.593 175.909 123.203 174.645L123.293 174.948Z" fill="#102185"/>
<path d="M112.471 149.764C112.569 149.207 112.691 148.509 113.068 148C113.444 147.491 113.821 146.982 114.313 146.637C114.805 146.292 115.411 146.111 115.879 145.906C116.485 145.725 117.043 145.822 117.74 145.945C118.996 146.165 120.153 146.942 120.819 148.065C121.484 149.188 121.822 150.541 121.463 151.772C121.047 154.143 118.236 156.237 116.054 155.567C113.453 154.824 111.72 153.226 112.471 149.764Z" fill="#102185"/>
<path d="M129.671 150.048C129.769 149.491 129.891 148.793 130.267 148.284C130.644 147.775 131.021 147.266 131.513 146.921C132.004 146.576 132.611 146.395 133.218 146.214C133.8 146.172 134.382 146.131 135.08 146.253C135.637 146.351 136.335 146.473 136.68 146.965C137.189 147.341 137.698 147.718 137.903 148.185C138.248 148.677 138.429 149.284 138.611 149.891C138.792 150.497 138.694 151.055 138.572 151.752C138.474 152.31 138.352 153.008 137.86 153.353C137.483 153.862 137.107 154.371 136.615 154.716C136.123 155.061 135.516 155.242 134.91 155.423C134.303 155.604 133.745 155.506 133.048 155.384C131.793 155.164 130.775 154.411 130.085 153.427C129.395 152.444 129.196 151.115 129.392 149.999L129.671 150.048Z" fill="#102185"/>
</svg>

<svg xmlns="http://www.w3.org/2000/svg" width="245" height="354" fill="none" viewBox="0 0 245 354"><path fill="#102185" d="M108.919 279.088c6.16 6.685 11.391 12.921 16.975 18.787 13.591 14.313 27.485 28.536 41.099 42.71 1.363 1.245 2.562 2.605 3.622 3.941.739.704 1.29 1.663 1.397 2.688.248 1.05.077 2.026-.234 2.978-.122.697-.663 1.321-1.179 1.805-.516.485-1.172.945-1.918 1.102-.746.156-1.492.313-2.19.191-.697-.122-1.534-.269-2.043-.646-.903-.589-1.666-1.154-2.381-1.998-14.238-14.715-28.502-29.289-42.577-44.119-7.407-7.767-14.346-15.739-21.59-23.621-.738-.705-1.478-1.409-2.192-2.253-.484-.516-.993-.893-1.666-1.155-.673-.261-1.395-.244-2.092-.366-9.662.175-19.184.374-28.846.549l-43.37.591c-4.192.128-8.243.28-12.27.293-5.028-.019-7.36-2.297-7.365-7.185L0 251.801c.169-17.363.313-34.588.343-51.975.063-15.945-.037-31.774.027-47.719.118-11.335.212-22.531.191-33.89-.02-3.166-.015-6.472.104-9.613.063-2.001.685-3.905 1.585-5.759.875-1.716 2.17-3.358 3.808-4.508C19.423 86.88 32.672 75.26 45.897 63.78c11.536-10.053 23.188-19.941 34.7-29.854 11.349-9.797 22.533-19.48 33.742-29.302.844-.715 1.525-1.314 2.369-2.029 4.334-3.409 8.526-3.537 12.778.084a2287 2287 0 0 1 27.545 24.09l52.454 45.994c8.851 7.732 17.652 15.744 26.667 23.361 1.387 1.106 2.447 2.441 3.342 3.892.872 1.59 1.3 3.247 1.45 4.854.465 5.544.652 11.039.839 16.534.179 6.356.055 12.803.235 19.159.195 12.828.529 25.68.724 38.507.185 11.245.37 22.489.531 33.873.24 15.854.455 31.848.834 47.726-.015 1.722.135 3.33.12 5.052.246 6.799-2.76 10.01-9.535 10.116l-41.977.835c-3.887.037-7.66.238-11.99.342a57 57 0 0 0 2.447 2.441l47.895 40.02c2.751 2.351 5.501 4.701 8.112 7.028a4.48 4.48 0 0 1 1.61 2.294 8.5 8.5 0 0 1 .372 2.797c-.122.697-.269 1.534-.67 2.182-.401.649-.917 1.133-1.573 1.593s-1.402.617-2.123.634a6.1 6.1 0 0 1-2.232-.391q-1.981-.995-3.472-2.334l-61.647-51.773c-.254-.189-.648-.401-.878-.729-1.363-1.245-2.915-2.236-4.679-2.833-1.764-.596-3.601-.775-5.487-.674-13.041.589-26.123.595-39.254.881-3.051.184-6.053.089-10.104.241zm-21.754-9.564c.284-3.256.354-6.119.589-9.096 1.03-9.163 3.202-18.269 6.301-26.926 2.805-6.983 6.513-13.376 12.536-18.214 7.195-5.782 15.731-7.736 24.786-7.73 7.029.082 13.733 2.839 18.602 7.861a39.4 39.4 0 0 1 8.553 12.711c4.506 9.559 5.559 19.949 6.777 30.225.462 3.099.622 6.29 1.06 9.529 10.08-.102 19.881-.252 29.707-.542.746-.157 1.492-.314 2.287-.749-1.658-52.039-3.596-104.127-5.37-156.33-48.489.269-96.56.61-144.607.813-.721.017-1.328.198-1.96.519.955 52.778 1.934 105.416 2.978 158.497 12.664-.08 25.049-.209 37.646-.731zM18.833 101.727l202.314-1.191c.698.123 1.583-.01 2.329-.166.304-.091.632-.321.935-.411-3.9-3.99-99.031-87.795-101.887-88.727-34.07 29.533-68.279 59.041-102.676 88.804-.377.509-.778 1.157-1.155 1.666zm-8.469 10.59c-.07 2.862-.141 5.725-.097 8.751-.112 16.224-.2 32.307-.428 48.367-.063 10.195-.01 20.554-.072 30.749l-.073 36.498c-.087 10.335-.034 20.694-.006 31.192.084 1.164.192 2.19.439 3.239l30.01-.633c-.234-10.965-.238-21.603-.545-32.15a12267 12267 0 0 0-.528-31.429c-.168-10.523-.427-21.349-.595-31.872-.143-10.662-.335-21.046-.667-31.454-.307-10.547-.172-21.16-.758-31.756-11.844-.495-23.392-.22-26.565.662zm223.94 154.251.293-1.673c-.298-17.158-.597-34.316-.756-51.45-.374-19.184-.585-38.482-.959-57.666-.237-13.41-.449-26.959-.686-40.369-.01-1.583.447-3.371-.637-4.567-.418-.074-.509-.377-.533-.238-8.916.019-17.692.061-26.468.104-.558-.098-1.074.387-1.705.708.529 17.485 1.106 34.692 1.659 52.038.553 17.347.991 34.529 1.823 51.924.856 17.256.851 34.505 1.937 52.088 9.006.285 17.437-.249 26.262-.571zm-77.76 1.606c.007-.861-.035-1.443-.101-1.886-.514-5.265-1.005-10.67-1.798-15.984-.926-6.199-1.991-12.423-4.876-18.104-2.129-4.254-4.562-8.418-8.518-11.268-4.581-3.39-9.814-3.876-15.383-3.271a25.25 25.25 0 0 0-9.92 3.292c-3.041 1.767-5.761 4.165-7.833 6.964-3.956 5.344-5.917 11.612-7.739 17.905s-2.2 12.552-3.3 18.827c-.13 1.559.02 3.166.17 4.774 19.905-.392 39.507-.693 59.158-1.273z"/><path fill="#102185" d="M162.792 166.924c-2.618 12.478-9.242 22.385-20.907 28.246s-23.418 5.67-34.605-1.035c-13.55-7.981-19.872-20.302-19.717-35.943-.09-6.053 1.217-11.861 3.753-17.31s6.37-10.095 11.057-13.874c6.915-5.831 15.598-8.621 24.555-8.057 6.562.288 12.97 2.273 18.387 5.81 8.266 5.33 14.271 13.714 16.636 23.184 1.647 6.183 1.827 12.539.726 18.815zm-9.64-2.409c.881-5.021.505-10.261-.944-15.115-1.588-4.878-4.251-9.37-7.921-13.032a28.23 28.23 0 0 0-15.601-7.766c-5.906-.748-11.9.645-16.908 3.792-15.909 9.574-19.025 31.452-8.018 45.743 2.67 3.631 6.183 6.546 10.286 8.559 4.104 2.013 8.566 2.796 13.061 2.577 12.597-.523 24.281-11.412 26.045-24.758M119.729 41.935c-.613 1.042-1.367 2.06-2.235 2.914-3.31 3.3-6.71 6.298-9.996 9.46-6.734 6.438-13.354 13.04-20.113 19.617-1.36 1.199-2.72 2.398-4.196 3.433a5.44 5.44 0 0 1-3.476.972c-1.255-.22-2.322-.695-3.152-1.703-.69-.983-1.052-2.197-.856-3.312.195-1.116.67-2.183 1.678-3.012 3.121-3.047 6.497-5.905 9.594-8.812 8.283-7.891 16.427-15.807 24.57-23.723.541-.624 1.221-1.223 1.992-1.52a6.3 6.3 0 0 1 2.378-.445c3.117.259 4.497 2.226 3.788 6.27zM131.605 55.372c-.426.788-.991 1.551-1.556 2.315-5.563 5.493-10.986 11.01-16.688 16.48-1.057 1.108-2.229 2.053-3.401 2.997-2.434 1.586-4.829 1.31-6.258-.378-.854-.868-1.216-2.082-1.16-3.222.195-1.116.555-2.346 1.399-3.06 6.128-6.258 12.395-12.49 18.662-18.722 1.033-.97 2.18-1.774 3.533-2.112 3.337-.997 6.038 1.633 5.305 5.817zM134.75 80.072c-3.626-.635-5.139-3.488-3.952-6.155.097-.558.45-.927.802-1.297 3.31-3.3 6.644-6.74 10.208-9.853a3.34 3.34 0 0 1 1.451-.896c.467-.206 1.049-.247 1.607-.15.558.098 1.116.196 1.65.433s.902.59 1.247 1.081c.37.353.715.844.92 1.312.206.467.387 1.074.289 1.632l-.293 1.673c-.098.558-.589.903-.942 1.272-3.195 3.465-6.644 6.742-10.093 10.018-.819.575-1.869.823-2.894.93M136.212 247.216c.122-.697.22-1.255.597-1.764s.753-1.018 1.385-1.338c.491-.345 1.122-.666 1.705-.708.606-.181 1.304-.058 1.861.039 1.256.22 2.389 1.138 3.079 2.121s1.028 2.336.947 3.616a4.52 4.52 0 0 1-2.121 3.078c-1.123.666-2.336 1.028-3.591.808-1.231-.359-2.249-1.113-2.914-2.236-.666-1.123-1.028-2.336-.808-3.591z"/><path fill="#102185" d="M123.293 174.948c-3.068-.537-5.801-2.167-7.666-4.65-1.338-1.384-2.349-2.999-3.36-4.613-.55-.959-.797-2.009-.602-3.125.196-1.115.646-2.043 1.514-2.897.844-.714 1.754-.986 2.779-1.094 1.025-.107 2.092.367 2.88.793 1.018.753 2.011 1.646 2.701 2.629.739.705 1.315 1.524 2.054 2.229 1.641 1.294 2.642 1.326 4.445.061 1.311-.921 2.229-2.054 3.54-2.974 3.417-2.275 7.545-.402 7.582 3.486-.007.861-.317 1.813-.579 2.486-2.153 4.078-8.988 8.63-15.378 7.366zM112.471 149.764c.098-.557.22-1.255.597-1.764.376-.509.753-1.018 1.245-1.363s1.098-.526 1.566-.731c.606-.181 1.164-.084 1.861.039a4.52 4.52 0 0 1 3.079 2.12c.665 1.123 1.003 2.476.644 3.707-.416 2.371-3.227 4.465-5.409 3.795-2.601-.743-4.334-2.341-3.583-5.803M129.671 150.048c.098-.557.22-1.255.596-1.764.377-.509.754-1.018 1.246-1.363.491-.345 1.098-.526 1.705-.707.582-.042 1.164-.083 1.862.039.557.098 1.255.22 1.6.712.509.376 1.018.753 1.223 1.22.345.492.526 1.099.708 1.706.181.606.083 1.164-.039 1.861-.098.558-.22 1.256-.712 1.601-.377.509-.753 1.018-1.245 1.363s-1.099.526-1.705.707-1.165.083-1.862-.039c-1.255-.22-2.273-.973-2.963-1.957-.69-.983-.889-2.312-.693-3.428z"/></svg>
